icons/headphone-fill.svg

<svg viewBox="0 0 24 24" fill="currentColor" xmlns="http://www.w3.org/2000/svg">
    <path d="M4 12H7C8.10457 12 9 12.8954 9 14V19C9 20.1046 8.10457 21 7 21H4C2.89543 21 2 20.1046 2 19V12C2 6.47715 6.47715 2 12 2C17.5228 2 22 6.47715 22 12V19C22 20.1046 21.1046 21 20 21H17C15.8954 21 15 20.1046 15 19V14C15 12.8954 15.8954 12 17 12H20C20 7.58172 16.4183 4 12 4C7.58172 4 4 7.58172 4 12Z"/>
</svg>

<svg xmlns="http://www.w3.org/2000/svg" viewBox="0 0 24 24">
    <g>
        <path fill="none" d="M0 0h24v24H0z"/>
        <path d="M4 12h3a2 2 0 0 1 2 2v5a2 2 0 0 1-2 2H4a2 2 0 0 1-2-2v-7C2 6.477 6.477 2 12 2s10 4.477 10 10v7a2 2 0 0 1-2 2h-3a2 2 0 0 1-2-2v-5a2 2 0 0 1 2-2h3a8 8 0 1 0-16 0z"/>
    </g>
</svg>
